X:1
T:Sweet love, if thou wilt gain - Wilbye
T:#
%%score 1 2 3 { 4 | 5 }
L:1/8
Q:1/4=120
M:4/4
K:G
V:1 treble nm="Soprano I"
V:2 treble nm="Soprano II"
V:3 treble nm="Alto" snm="A"
V:4 treble-8 nm="Tenor I" snm="T"
V:5 treble-8 
V:1
"^Sweet love, if thou wilt gain""^John Wilbye\n (1574-1638)"!p! d8 | B8 | z2"^cresc." d3 c B2 | %3
w: Sweet|love,|if thou wilt|
 A2 G2 c4- | c2 B2 A4 | G8 |[M:4/4] z8 | z8 | z4 d4 | B4 A4 | G4 d4 | d4 B4 | (AGAB A2) G2 | %13
w: gain a mon\-|* arch's glo-|ry,|||Sub-|due her|heart, who|makes me|glad * * * * and|
 F2 D4 G2 | A8 | A2!f! B3 B B2 | c2 B2 A4 | B4 z4 |!f! d4 d4- | d2 A2 c4- | c2 B2 A4 | G4 B4 | %22
w: sor- ry, and|sor-|ry, Out of thy|gol- den qui-|ver|Take thou|* thy strong\-|* est ar-|row, take|
 B6 A2 | A4 G4 | (F2 G4 F2) | G8 | z8 | z8 | z4 d4- | d4 A2 B2 | c2 d2 e4 | d4 d4- | d4 A2 B2 | %33
w: thou thy|strong- est|ar\- * *|row,|||That|* will thro'|bone and mar-|row, that|* will thro'|
 c4 B4 | A4 A4 | z8 | z8 | z8 | z8 | z2!p! d2 d2 A2 | B4 z2 B2 | A2 B2 A2 z2 | z2 d2 d2 d2 | %43
w: bone and|mar- row,|||||And me and|thee, and|me and thee,|and me and|
 d2 z2 z2 A2 | c3 B A4- | A2 G2 (G4- | G4 F4) | G8 | z8 | z4 G4 | A4 B4 | c2 (B^c) d2 d2 | %52
w: thee, of|grief and fear|* de- li\-||er;||But|come be-|hind, for * if she|
 d2 d2 d4 | d4 z4 | z8 | z8 | z8 | z8 | z4!p! d4 | B4 A4 | G4 z4 | z4 G4 | E4 =F4 | G8 | %64
w: look up- on|thee,|||||A-|las! poor|love,|a-|las! poor|love,|
 z4!pp! A4 | d3 c B2 B2 | A8 | B8- | B16 |] %69
w: Then|thou art woe- be-|gone|thee.||
V:2
 z8 |!p! d8 | B4 z2"^cresc." d2 | c3 B A2 G2 | F2 G2 (G2 F2) | G4 z4 |[M:4/4] z8 | z8 | z8 | %9
w: |Sweet|love, if|thou wilt gain a|mon- arch's glo\- *|ry,||||
 z4 d4 | B4 A4 | G4 d4 | d6 B2 | (AGAB A2) G2- | G2 (F2 E4) | F2!f! d3 d d2 | e2 d2 d4 | d4!f! B4 | %18
w: Sub-|due her|heart, who|makes me|glad * * * * and|* sor\- *|ry, Out of thy|gol- den qui-|ver Take|
 B6 A2 | A6 G2 | (F2 G4 F2) | G8 | z8 | z8 | z8 | z8 | d8 | A2 B2 c2 c2 | B4 G4 | z4 A4- | %30
w: thou thy|strong- est|ar\- * *|row,|||||That|will thro' bone and|mar- row,|that|
 A4 E2 =F2 | G2 A2 B4 | A4 z4 | z8 | z4 z2!p! d2 | d2 d2 d2 d2- | d2 c4 B2 | d6 c2 | B4 A4 | %39
w: * will thro'|bone and mar-|row,||And|me and thee of|* grief and|fear de-|li- ver,|
 G4 G2 F2 | G4 z2 d2 | d2 d2 d2 B2 | A2 B2 A2 G2 | F2 G2 F4 | z4 A4 | d3 c B2 B2 | A8 | B8 | z8 | %49
w: and me and|thee, and|me and thee, and|me and thee, and|me and thee,|of|grief and fear de-|li-|ver;||
 z8 | z8 | z8 | z8 | z2"^cresc." D4 E2- | E2 F4 G2- | G2 z2 G4 | A4 B4 | c2!f! d2 e2 d2 | %58
w: ||||But come|* be- hind,|* but|come be-|hind, for if she|
 c2 B2 A2 A2 | z4!p! d4 | B4 A4 | G4 z2 d2 | G4 (A3 B) | c6!pp! c2 | c3 B A4- | A2 G2 (G4- | %66
w: look up- on thee,|A-|las! poor|love, a-|las! poor *|love, Then|thou art woe\-|* be- gone|
 G4 F4) | G8- | G16 |] %69
w: |thee.||
V:3
 z8 | z8 | z2"^cresc."!p! G2 G2 G2 | E6 D2 | C2 D2 D4 | D4!p! D4 |[M:4/4] B,4 z2"^cresc." D2 | %7
w: ||if thou wilt|gain a|mon- arch's glo-|ry, sweet|love, if|
w: |||||||
 C3 B, C2 D2 | (E=F) G2 (G2 ^F2) | G4 z4 | D8 | B,3 C D2 D2 | D4 D4 | (DEFG F2) D2 | (^C2 D4 C2) | %15
w: thou wilt gain a|mon\- * arch's glo\- *|ry,|Sub-|due her heart, who|makes me|glad * * * * and|sor\- * *|
w: ||||||||
 D2!f! G3 G G2 | G2 G2 (G2 F2) | G8 | z8 | z8 | z8 | z4!f! G4 | G6 =F2 | =F4 C4 | D8 | B,4 z4 | %26
w: ry, Out of thy|gol- den qui\- *|ver||||take|thou thy|strong- est|ar-|row,|
w: |||||||||||
 z4 A4- | A4 E2 =F2 | G2 A2 B4 | A4 z4 | z4 G4- | G4 D2 E2 | =F2 G2 A4 | G8 | z4 z2!p! A2 | %35
w: That|* will thro'|bone and mar-|row,|that|* will thro'|bone and mar-|row,|And|
w: |||||||||
 B2 A2 B2 A2 | A4 G4 | F4 A2 (A2- | AG G4 F2) | G4 z4 | z2 D2 D2 D2 | D2 G2 F2 G2 | D4 z2 B,2 | %43
w: me and thee of|grief and|fear de- li\-||ver,|and me and|thee, and me and|thee, and|
w: ||||||||
 A,2 G,2 A,2 D2 | E4 E4 | D4 G,4 | A,8 | G,6"^cresc." B,2- | B,2 C4 D2- | D2 E2 D2 E2- | %50
w: me and thee of|grief and|fear de-|li-|ver; But|* come be\-|* hind, but come|
w: |||||||
 E2 F4 G2- | G2 G2 A2 B2 | A2 G2 (G2 F2) | G8 | z8 | z8 | z4 z2!f! G,2- | G,A, B,2 C2 D2 | %58
w: * be- hind,|* for if she|look up- on *|thee,|||||
w: ||||||for|* if she look up-|
 (E=F G4 ^F2) | G2!p! B,2 D2 D2 | G,4 D4 | B,8- | B,4 A,4 | G,4!pp! G,4 | C6 B,2 | A,4 (B,3 C) | %66
w: on * * *|thee, A- las! poor|love, a-|las!|* poor|love, Then|thou art|woe- be\- *|
w: ||||||||
 D8 | D8- | D16 |] %69
w: gone|thee.||
w: |||
V:4
 z8 | z8 | z2"^cresc."!p! G3 A B2 | c6 B2 | A2 G2 d4 | G8 | %6
w: ||if thou wilt|gain a|mon- arch's glo-|ry,|
[M:4/4][K:treble-8] z2"^cresc." g2 g2 g2 | e6 d2 | c2 d2 d4 | d2 g2 g2 f2 | g4 z4 | d4 g2 g2 | %12
w: if thou wilt|gain a|mon- arch's glo-|ry, Sub- due her|heart,|who makes me|
 (fefg f2) z2 | z4 d4 | A8 | A2!f! G3 G G2 | G2 G2 A4 | G4!f! g4 | g6 d2 | =f4 e4 | d8 | G8 | z8 | %23
w: glad * * * *|and|sor-|ry, Out of thy|gol- den qui-|ver Take|thou thy|strong- est|ar-|row,||
 z8 | z4 d4- | d4 B2 c2 | d2 B2 d4 | c4 g4- | g4 d2 e2 | =f2 d2 f4 | e4 z4 | z4 d4- | d4 c2 d2 | %33
w: |That|* will thro'|bone and mar-|row, that|* will thro'|bone and mar-|row,|that|* will thro'|
 e2 =f2 g4- | g4 f4 | z8 | z8 | z8 | z2!p! d2 d2 A2 | B3 c d4- | d2 B2 A2 G2 | A2 G2 z2 g2 | %42
w: bone and mar\-|* row,||||And me and|thee of grief|* and fear de-|li- ver, and|
 f2 g2 f2 d2 | d2 ^c2 d2 d2 | c6 B2 | A4 (B3 c) | d8 | d4"^cresc." d4 | e4 f4 | g4 z4 | z8 | z8 | %52
w: me and thee, and|me and thee of|grief and|fear de\- *|li-|ver; But|come be-|hind,|||
 z8 | z4"^cresc." B4 | c4 d4 | e4 d2 e2- | e2 f4 g2- | g2 d2!f! g2 g2 | c2 d2 d4 | d2!p! g2 g2 f2 | %60
w: |but|come be-|hind, but come|* be- hind,|* for if she|look up- on|thee, A- las! poor|
 g4 z4 | G4 G4- | G4 =F4 | E4!pp! E4 | A4 A4 | D4 D4 | D8 | D8- | D16 |] %69
w: love,|a- las!|* poor|love, Then|thou art|woe- be-|gone|thee.||
V:5
 z8 | z8 | z8 | z8 | z4!p! d4 | B8 |[M:4/4][K:treble-8] z2"^cresc." d3 c B2 | A2 G2 c4- | %8
w: ||||Sweet|love,|if thou wilt|gain a mon\-|
 c2 B2 A4 | G4 d4 | G4 A4 | B4 G4 | A6 (Bc) | d4 D4 | (E2 D2 E4) | D2!f! d3 d d2 | c2 d2 d4 | d8 | %18
w: * arch's glo-|ry, Sub-|due her|heart, who|makes me *|glad and|sor\- * *|ry, Out of thy|gol- den qui-|ver|
 z8 | z8 | z8 | z8 |!f! d4 d4- | d2 A2 c4- | c2 B2 A4 | G8 | z8 | z8 | z8 | d8 | A2 B2 c2 c2 | %31
w: ||||Take thou|* thy strong\-|* est ar-|row,||||that|will thro' bone and|
 B4 G4 | z8 | z8 | z4!p! d4 | g2 f2 g2 d2 | =f4 e4 | d4 A4 | B3 c d4- | d2 d2 d2 d2 | G4 z2 g2 | %41
w: mar- row,|||And|me and thee of|grief and|fear de-|li\- * ver,|* and me and|thee, and|
 f2 g2 d2 d2 | d2 G2 d4 | z4 z2 A2 | A4 A4 | D4 D4 | D8 | D6"^cresc." G2- | G2 A4 B2- | %49
w: me and thee, and|me and thee|of|grief and|fear de-|li-|ver; But|* come be\-|
 B2 c2 B2 c2- | c2 d4 e2- | e2 e2 f2 g2 | d2 G2 d4 | B4"^cresc." G4 | E2 A2 D4 | z2 G2 G3 G | %56
w: * hind, but come|* be- hind,|* for if she|look up- on|thee, but|come be- hind,|for if she|
 c2 A2 d2 G2 |!f! G4 G2 D2 | A2 (Bc) (d2 A2) | B4 z4 | z2!p! g2 g2 f2 | g4 d4 | c8- | c4!pp! c4 | %64
w: look up- on thee,|for if she|look up\- * on *|thee,|A- las! poor|love, a-|las!|* poor|
 e4 e4 | d2 d2 d2 G2 | A8 | G8- | G16 |] %69
w: love, Then|thou art woe- be-|gone|thee.||

